X:198
T: BALD SIND WIR AUF EWIG GESCHIEDEN
N: E0780
O: Europa, Mitteleuropa, Deutschland, Hessen, Darmstadt; Taunus
R: Abschieds - Lied, Liebe
M: 3/4
L: 1/8
K: Bb
F2 | B2D3D | D2G3F | F2E2z
E | c2c3B | A2G2F2 | B4
F2 | G2G3A | B2B3G | G2F2z
F | F2B2d2 | e2c2A2 | B4

@@@ Tune index: 4511
